X: 1974
T: Arthur's Seat
R: reel
M: 4/4
K: Bminor
c|BF~F2 d2de|cAeA fedc|BF~F2 d2de|fedc dBBc|
BF~F2 d2de|cBAa fedc|BF~F2 d2de|fedc dBB||
c|Bbba gfed|caed cAAc|Bbba gfed|caec dBBc|
Bbba gfed|caed cAAc|BFBc dcde|fedc dBB||

